cached_logos/app-defense-alliance-fund.svg

<svg xmlns="http://www.w3.org/2000/svg" role="img" xmlns:xlink="http://www.w3.org/1999/xlink" viewBox="-4.92 2.33 231.84 242.84"><title>App Defense Alliance Fund logo</title><defs><g id="glyph-0-0"><path d="M -0.0859375 0 L 16.40625 -42.949219 L 22.53125 -42.949219 L 40.109375 0 L 33.632812 0 L 28.625 -13.007812 L 10.664062 -13.007812 L 5.945312 0 Z M 12.304688 -17.636719 L 26.867188 -17.636719 L 22.382812 -29.53125 C 21.015625 -33.144531 20 -36.113281 19.335938 -38.4375 C 18.789062 -35.683594 18.015625 -32.949219 17.023438 -30.234375 Z M 12.304688 -17.636719"/></g><g id="glyph-0-1"><path d="M 3.953125 11.921875 L 3.953125 -31.113281 L 8.757812 -31.113281 L 8.757812 -27.070312 C 9.890625 -28.652344 11.171875 -29.839844 12.597656 -30.628906 C 14.023438 -31.421875 15.75 -31.816406 17.78125 -31.816406 C 20.4375 -31.816406 22.78125 -31.132812 24.8125 -29.765625 C 26.84375 -28.398438 28.378906 -26.46875 29.414062 -23.980469 C 30.449219 -21.488281 30.96875 -18.757812 30.96875 -15.789062 C 30.96875 -12.605469 30.394531 -9.742188 29.253906 -7.191406 C 28.109375 -4.644531 26.449219 -2.691406 24.273438 -1.332031 C 22.09375 0.0234375 19.804688 0.703125 17.402344 0.703125 C 15.644531 0.703125 14.066406 0.332031 12.671875 -0.410156 C 11.273438 -1.152344 10.125 -2.089844 9.226562 -3.222656 L 9.226562 11.921875 Z M 8.730469 -15.382812 C 8.730469 -11.378906 9.539062 -8.417969 11.164062 -6.503906 C 12.785156 -4.589844 14.746094 -3.632812 17.050781 -3.632812 C 19.394531 -3.632812 21.402344 -4.625 23.070312 -6.605469 C 24.742188 -8.589844 25.578125 -11.660156 25.578125 -15.820312 C 25.578125 -19.785156 24.761719 -22.753906 23.128906 -24.726562 C 21.5 -26.699219 19.550781 -27.6875 17.285156 -27.6875 C 15.039062 -27.6875 13.050781 -26.636719 11.324219 -24.535156 C 9.59375 -22.4375 8.730469 -19.382812 8.730469 -15.382812 Z M 8.730469 -15.382812"/></g><g id="glyph-0-2"><path d="M 4.628906 0 L 4.628906 -42.949219 L 19.421875 -42.949219 C 22.761719 -42.949219 25.3125 -42.742188 27.070312 -42.335938 C 29.53125 -41.769531 31.632812 -40.742188 33.367188 -39.257812 C 35.632812 -37.34375 37.328125 -34.898438 38.453125 -31.917969 C 39.574219 -28.941406 40.136719 -25.539062 40.136719 -21.710938 C 40.136719 -18.449219 39.757812 -15.554688 38.992188 -13.039062 C 38.230469 -10.519531 37.257812 -8.433594 36.0625 -6.78125 C 34.871094 -5.132812 33.570312 -3.832031 32.152344 -2.886719 C 30.738281 -1.9375 29.027344 -1.21875 27.027344 -0.734375 C 25.023438 -0.246094 22.726562 0 20.125 0 Z M 10.3125 -5.070312 L 19.484375 -5.070312 C 22.316406 -5.070312 24.535156 -5.332031 26.148438 -5.859375 C 27.757812 -6.386719 29.042969 -7.128906 30 -8.085938 C 31.347656 -9.433594 32.398438 -11.246094 33.148438 -13.519531 C 33.902344 -15.796875 34.277344 -18.554688 34.277344 -21.796875 C 34.277344 -26.289062 33.539062 -29.742188 32.066406 -32.152344 C 30.589844 -34.566406 28.796875 -36.179688 26.6875 -37 C 25.164062 -37.585938 22.714844 -37.882812 19.335938 -37.882812 L 10.3125 -37.882812 Z M 10.3125 -5.070312"/></g><g id="glyph-0-3"><path d="M 25.253906 -10.019531 L 30.703125 -9.34375 C 29.84375 -6.160156 28.25 -3.691406 25.929688 -1.933594 C 23.605469 -0.175781 20.632812 0.703125 17.023438 0.703125 C 12.472656 0.703125 8.863281 -0.699219 6.195312 -3.5 C 3.53125 -6.304688 2.195312 -10.234375 2.195312 -15.292969 C 2.195312 -20.527344 3.546875 -24.589844 6.242188 -27.480469 C 8.9375 -30.371094 12.429688 -31.816406 16.726562 -31.816406 C 20.886719 -31.816406 24.289062 -30.398438 26.921875 -27.570312 C 29.558594 -24.738281 30.878906 -20.75 30.878906 -15.617188 C 30.878906 -15.304688 30.867188 -14.835938 30.851562 -14.210938 L 7.648438 -14.210938 C 7.84375 -10.792969 8.808594 -8.171875 10.546875 -6.359375 C 12.285156 -4.542969 14.453125 -3.632812 17.050781 -3.632812 C 18.984375 -3.632812 20.632812 -4.140625 22 -5.15625 C 23.367188 -6.171875 24.453125 -7.792969 25.253906 -10.019531 Z M 7.9375 -18.546875 L 25.3125 -18.546875 C 25.078125 -21.164062 24.414062 -23.125 23.320312 -24.433594 C 21.640625 -26.464844 19.460938 -27.480469 16.789062 -27.480469 C 14.367188 -27.480469 12.328125 -26.671875 10.679688 -25.046875 C 9.027344 -23.425781 8.117188 -21.257812 7.9375 -18.546875 Z M 7.9375 -18.546875"/></g><g id="glyph-0-4"><path d="M 5.214844 0 L 5.214844 -27.011719 L 0.554688 -27.011719 L 0.554688 -31.113281 L 5.214844 -31.113281 L 5.214844 -34.421875 C 5.214844 -36.511719 5.398438 -38.066406 5.773438 -39.082031 C 6.28125 -40.449219 7.171875 -41.558594 8.453125 -42.40625 C 9.730469 -43.257812 11.523438 -43.679688 13.828125 -43.679688 C 15.3125 -43.679688 16.953125 -43.507812 18.75 -43.15625 L 17.960938 -38.554688 C 16.867188 -38.75 15.828125 -38.847656 14.851562 -38.847656 C 13.25 -38.847656 12.117188 -38.507812 11.453125 -37.820312 C 10.789062 -37.136719 10.460938 -35.859375 10.460938 -33.984375 L 10.460938 -31.113281 L 16.523438 -31.113281 L 16.523438 -27.011719 L 10.460938 -27.011719 L 10.460938 0 Z M 5.214844 0"/></g><g id="glyph-0-5"><path d="M 3.953125 0 L 3.953125 -31.113281 L 8.703125 -31.113281 L 8.703125 -26.6875 C 10.988281 -30.105469 14.289062 -31.816406 18.601562 -31.816406 C 20.476562 -31.816406 22.203125 -31.480469 23.773438 -30.804688 C 25.347656 -30.132812 26.523438 -29.25 27.304688 -28.15625 C 28.085938 -27.0625 28.632812 -25.761719 28.945312 -24.257812 C 29.140625 -23.28125 29.238281 -21.570312 29.238281 -19.132812 L 29.238281 0 L 23.964844 0 L 23.964844 -18.925781 C 23.964844 -21.074219 23.757812 -22.679688 23.351562 -23.746094 C 22.941406 -24.808594 22.210938 -25.660156 21.167969 -26.292969 C 20.121094 -26.929688 18.898438 -27.246094 17.492188 -27.246094 C 15.246094 -27.246094 13.304688 -26.53125 11.675781 -25.109375 C 10.042969 -23.683594 9.226562 -20.976562 9.226562 -16.992188 L 9.226562 0 Z M 3.953125 0"/></g><g id="glyph-0-6"><path d="M 1.84375 -9.289062 L 7.0625 -10.109375 C 7.355469 -8.019531 8.167969 -6.414062 9.507812 -5.304688 C 10.84375 -4.191406 12.714844 -3.632812 15.117188 -3.632812 C 17.539062 -3.632812 19.335938 -4.125 20.507812 -5.113281 C 21.679688 -6.097656 22.265625 -7.257812 22.265625 -8.585938 C 22.265625 -9.777344 21.75 -10.710938 20.710938 -11.398438 C 19.988281 -11.867188 18.195312 -12.460938 15.320312 -13.183594 C 11.453125 -14.160156 8.773438 -15.003906 7.28125 -15.71875 C 5.785156 -16.429688 4.652344 -17.417969 3.882812 -18.675781 C 3.109375 -19.9375 2.726562 -21.328125 2.726562 -22.851562 C 2.726562 -24.238281 3.042969 -25.523438 3.675781 -26.703125 C 4.3125 -27.886719 5.175781 -28.867188 6.269531 -29.648438 C 7.089844 -30.253906 8.207031 -30.765625 9.625 -31.1875 C 11.039062 -31.605469 12.558594 -31.816406 14.179688 -31.816406 C 16.621094 -31.816406 18.765625 -31.464844 20.609375 -30.761719 C 22.457031 -30.058594 23.820312 -29.105469 24.695312 -27.90625 C 25.574219 -26.703125 26.179688 -25.097656 26.515625 -23.085938 L 21.359375 -22.382812 C 21.125 -23.984375 20.445312 -25.234375 19.320312 -26.132812 C 18.199219 -27.03125 16.609375 -27.480469 14.5625 -27.480469 C 12.140625 -27.480469 10.410156 -27.078125 9.375 -26.28125 C 8.339844 -25.480469 7.820312 -24.539062 7.820312 -23.46875 C 7.820312 -22.785156 8.039062 -22.167969 8.46875 -21.621094 C 8.898438 -21.054688 9.570312 -20.585938 10.488281 -20.214844 C 11.015625 -20.019531 12.570312 -19.570312 15.148438 -18.867188 C 18.878906 -17.871094 21.480469 -17.054688 22.953125 -16.421875 C 24.429688 -15.785156 25.585938 -14.863281 26.425781 -13.652344 C 27.265625 -12.441406 27.6875 -10.9375 27.6875 -9.140625 C 27.6875 -7.382812 27.171875 -5.726562 26.148438 -4.175781 C 25.121094 -2.621094 23.640625 -1.421875 21.710938 -0.570312 C 19.777344 0.277344 17.585938 0.703125 15.148438 0.703125 C 11.105469 0.703125 8.023438 -0.136719 5.902344 -1.816406 C 3.785156 -3.496094 2.429688 -5.984375 1.84375 -9.289062 Z M 1.84375 -9.289062"/></g><g id="glyph-0-7"><path d="M 3.835938 0 L 3.835938 -42.949219 L 9.109375 -42.949219 L 9.109375 0 Z M 3.835938 0"/></g><g id="glyph-0-8"><path d="M 3.984375 -36.882812 L 3.984375 -42.949219 L 9.257812 -42.949219 L 9.257812 -36.882812 Z M 3.984375 0 L 3.984375 -31.113281 L 9.257812 -31.113281 L 9.257812 0 Z M 3.984375 0"/></g><g id="glyph-0-9"><path d="M 24.257812 -3.835938 C 22.304688 -2.175781 20.425781 -1.007812 18.617188 -0.320312 C 16.8125 0.363281 14.875 0.703125 12.804688 0.703125 C 9.386719 0.703125 6.757812 -0.132812 4.921875 -1.800781 C 3.085938 -3.472656 2.167969 -5.605469 2.167969 -8.203125 C 2.167969 -9.726562 2.515625 -11.117188 3.207031 -12.378906 C 3.902344 -13.636719 4.808594 -14.648438 5.933594 -15.410156 C 7.054688 -16.171875 8.320312 -16.75 9.726562 -17.140625 C 10.761719 -17.414062 12.324219 -17.675781 14.414062 -17.929688 C 18.671875 -18.4375 21.804688 -19.042969 23.820312 -19.746094 C 23.839844 -20.46875 23.847656 -20.929688 23.847656 -21.125 C 23.847656 -23.273438 23.351562 -24.785156 22.351562 -25.664062 C 21.003906 -26.855469 19.003906 -27.453125 16.347656 -27.453125 C 13.867188 -27.453125 12.035156 -27.015625 10.855469 -26.148438 C 9.671875 -25.277344 8.796875 -23.742188 8.234375 -21.53125 L 3.078125 -22.234375 C 3.546875 -24.441406 4.316406 -26.226562 5.390625 -27.582031 C 6.464844 -28.941406 8.015625 -29.984375 10.046875 -30.71875 C 12.078125 -31.449219 14.433594 -31.816406 17.109375 -31.816406 C 19.765625 -31.816406 21.921875 -31.503906 23.585938 -30.878906 C 25.246094 -30.253906 26.464844 -29.46875 27.246094 -28.519531 C 28.027344 -27.574219 28.574219 -26.375 28.886719 -24.929688 C 29.0625 -24.03125 29.148438 -22.414062 29.148438 -20.070312 L 29.148438 -13.039062 C 29.148438 -8.136719 29.261719 -5.035156 29.488281 -3.734375 C 29.710938 -2.4375 30.15625 -1.191406 30.820312 0 L 25.3125 0 C 24.765625 -1.09375 24.414062 -2.375 24.257812 -3.835938 Z M 23.820312 -15.617188 C 21.90625 -14.835938 19.03125 -14.171875 15.203125 -13.625 C 13.035156 -13.3125 11.503906 -12.960938 10.605469 -12.570312 C 9.707031 -12.179688 9.015625 -11.605469 8.523438 -10.855469 C 8.035156 -10.101562 7.792969 -9.265625 7.792969 -8.351562 C 7.792969 -6.945312 8.324219 -5.773438 9.390625 -4.835938 C 10.453125 -3.898438 12.011719 -3.429688 14.0625 -3.429688 C 16.09375 -3.429688 17.898438 -3.871094 19.484375 -4.761719 C 21.066406 -5.648438 22.226562 -6.867188 22.96875 -8.40625 C 23.535156 -9.597656 23.820312 -11.359375 23.820312 -13.679688 Z M 23.820312 -15.617188"/></g><g id="glyph-0-10"><path d="M 24.257812 -11.398438 L 29.445312 -10.722656 C 28.878906 -7.148438 27.425781 -4.351562 25.09375 -2.328125 C 22.757812 -0.308594 19.890625 0.703125 16.492188 0.703125 C 12.234375 0.703125 8.8125 -0.6875 6.226562 -3.472656 C 3.636719 -6.253906 2.34375 -10.242188 2.34375 -15.4375 C 2.34375 -18.796875 2.898438 -21.738281 4.015625 -24.257812 C 5.128906 -26.777344 6.820312 -28.667969 9.097656 -29.925781 C 11.371094 -31.1875 13.847656 -31.816406 16.523438 -31.816406 C 19.902344 -31.816406 22.664062 -30.960938 24.8125 -29.253906 C 26.960938 -27.542969 28.339844 -25.117188 28.945312 -21.972656 L 23.820312 -21.179688 C 23.332031 -23.269531 22.464844 -24.84375 21.226562 -25.898438 C 19.984375 -26.953125 18.484375 -27.480469 16.726562 -27.480469 C 14.070312 -27.480469 11.914062 -26.527344 10.253906 -24.625 C 8.59375 -22.71875 7.765625 -19.707031 7.765625 -15.585938 C 7.765625 -11.40625 8.5625 -8.367188 10.164062 -6.476562 C 11.765625 -4.582031 13.859375 -3.632812 16.4375 -3.632812 C 18.507812 -3.632812 20.234375 -4.265625 21.621094 -5.539062 C 23.007812 -6.808594 23.886719 -8.757812 24.257812 -11.398438 Z M 24.257812 -11.398438"/></g><g id="glyph-0-11"><path d="M 4.921875 0 L 4.921875 -42.949219 L 33.898438 -42.949219 L 33.898438 -37.882812 L 10.605469 -37.882812 L 10.605469 -24.578125 L 30.761719 -24.578125 L 30.761719 -19.511719 L 10.605469 -19.511719 L 10.605469 0 Z M 4.921875 0"/></g><g id="glyph-0-12"><path d="M 24.34375 0 L 24.34375 -4.570312 C 21.921875 -1.054688 18.632812 0.703125 14.472656 0.703125 C 12.636719 0.703125 10.921875 0.351562 9.332031 -0.351562 C 7.738281 -1.054688 6.558594 -1.9375 5.785156 -3.003906 C 5.015625 -4.066406 4.472656 -5.371094 4.160156 -6.914062 C 3.945312 -7.949219 3.835938 -9.589844 3.835938 -11.835938 L 3.835938 -31.113281 L 9.109375 -31.113281 L 9.109375 -13.859375 C 9.109375 -11.105469 9.21875 -9.25 9.433594 -8.289062 C 9.765625 -6.902344 10.46875 -5.816406 11.542969 -5.023438 C 12.617188 -4.234375 13.945312 -3.835938 15.527344 -3.835938 C 17.109375 -3.835938 18.59375 -4.242188 19.980469 -5.054688 C 21.367188 -5.863281 22.347656 -6.96875 22.925781 -8.363281 C 23.5 -9.761719 23.789062 -11.789062 23.789062 -14.445312 L 23.789062 -31.113281 L 29.0625 -31.113281 L 29.0625 0 Z M 24.34375 0"/></g><g id="glyph-0-13"><path d="M 24.140625 0 L 24.140625 -3.925781 C 22.167969 -0.839844 19.265625 0.703125 15.4375 0.703125 C 12.957031 0.703125 10.679688 0.0195312 8.597656 -1.347656 C 6.519531 -2.714844 4.90625 -4.625 3.765625 -7.074219 C 2.621094 -9.527344 2.050781 -12.34375 2.050781 -15.527344 C 2.050781 -18.632812 2.570312 -21.449219 3.601562 -23.980469 C 4.636719 -26.507812 6.191406 -28.445312 8.261719 -29.796875 C 10.332031 -31.144531 12.648438 -31.816406 15.203125 -31.816406 C 17.078125 -31.816406 18.75 -31.421875 20.214844 -30.628906 C 21.679688 -29.839844 22.871094 -28.808594 23.789062 -27.539062 L 23.789062 -42.949219 L 29.03125 -42.949219 L 29.03125 0 Z M 7.46875 -15.527344 C 7.46875 -11.542969 8.3125 -8.5625 9.992188 -6.59375 C 11.671875 -4.621094 13.652344 -3.632812 15.9375 -3.632812 C 18.242188 -3.632812 20.199219 -4.574219 21.8125 -6.460938 C 23.421875 -8.34375 24.226562 -11.21875 24.226562 -15.085938 C 24.226562 -19.34375 23.40625 -22.46875 21.765625 -24.460938 C 20.125 -26.453125 18.105469 -27.453125 15.703125 -27.453125 C 13.359375 -27.453125 11.402344 -26.492188 9.828125 -24.578125 C 8.257812 -22.664062 7.46875 -19.648438 7.46875 -15.527344 Z M 7.46875 -15.527344"/></g></defs><g><use y="50" xlink:href="#glyph-0-0"/><use x="40.195" y="50" xlink:href="#glyph-0-1"/><use x="73.564" y="50" xlink:href="#glyph-0-1"/></g><g><use y="120" xlink:href="#glyph-0-2"/><use x="43.33" y="120" xlink:href="#glyph-0-3"/><use x="76.699" y="120" xlink:href="#glyph-0-4"/><use x="94.893" y="120" xlink:href="#glyph-0-3"/><use x="128.262" y="120" xlink:href="#glyph-0-5"/><use x="161.631" y="120" xlink:href="#glyph-0-6"/><use x="191.631" y="120" xlink:href="#glyph-0-3"/></g><g><use y="180" xlink:href="#glyph-0-0"/><use x="40.195" y="180" xlink:href="#glyph-0-7"/><use x="53.525" y="180" xlink:href="#glyph-0-7"/><use x="66.855" y="180" xlink:href="#glyph-0-8"/><use x="80.186" y="180" xlink:href="#glyph-0-9"/><use x="113.555" y="180" xlink:href="#glyph-0-5"/><use x="146.924" y="180" xlink:href="#glyph-0-10"/><use x="176.924" y="180" xlink:href="#glyph-0-3"/></g><g><use y="240" xlink:href="#glyph-0-11"/><use x="36.65" y="240" xlink:href="#glyph-0-12"/><use x="70.02" y="240" xlink:href="#glyph-0-5"/><use x="103.389" y="240" xlink:href="#glyph-0-13"/></g></svg>

<svg xmlns="http://www.w3.org/2000/svg" role="img" xmlns:xlink="http://www.w3.org/1999/xlink" viewBox="-4.92 2.33 231.84 242.84"><title>App Defense Alliance Fund logo</title><defs><path d="M-.08594 0l16.49219-42.94922h6.125L40.10938 0H33.6328L28.625-13.00781H10.66406L5.94531 0zM12.3047-17.63672h14.5625L22.3828-29.53125C21.01563-33.14453 20-36.11328 19.33594-38.4375c-.54688 2.7539-1.32032 5.48828-2.3125 8.20313zm0 0" id="a"/><path d="M3.95313 11.92188v-43.03516H8.7578v4.04297c1.13282-1.58203 2.41407-2.76953 3.83985-3.5586 1.42578-.79296 3.15234-1.1875 5.18359-1.1875 2.65625 0 5 .6836 7.03125 2.05079 2.03125 1.36718 3.5664 3.29687 4.60156 5.78515 1.03516 2.49219 1.55469 5.22266 1.55469 8.1914 0 3.1836-.57422 6.04688-1.71484 8.59766-1.14454 2.54688-2.8047 4.5-4.98047 5.85938C22.09375.02344 19.80469.70313 17.40234.70313c-1.7578 0-3.33593-.3711-4.73046-1.11329-1.39844-.74218-2.54688-1.67968-3.44532-2.8125v15.14454zm4.77734-27.3047c0 4.00391.8086 6.96485 2.4336 8.87891 1.62109 1.91407 3.58202 2.8711 5.88671 2.8711 2.34375 0 4.35156-.99219 6.01953-2.97266 1.67188-1.98437 2.50782-5.05469 2.50782-9.21484 0-3.96485-.81641-6.9336-2.44922-8.90625-1.62891-1.97266-3.57813-2.96094-5.84375-2.96094-2.2461 0-4.23438 1.05078-5.96094 3.15234-1.73047 2.09766-2.59375 5.15235-2.59375 9.15235zm0 0" id="b"/><path d="M4.6289 0v-42.94922h14.79297c3.33985 0 5.89063.20703 7.64844.61328 2.46094.5664 4.5625 1.59375 6.29688 3.07813 2.26562 1.91406 3.96093 4.35937 5.08593 7.33984 1.1211 2.97656 1.6836 6.3789 1.6836 10.20703 0 3.26172-.3789 6.15625-1.14453 8.67188-.76172 2.51953-1.73438 4.60547-2.92969 6.25781-1.1914 1.64844-2.49219 2.94922-3.91016 3.89453-1.41406.94922-3.125 1.66797-5.125 2.15234C25.02344-.24608 22.72656 0 20.125 0zm5.6836-5.07031h9.17188c2.83203 0 5.05078-.26172 6.66406-.78906C27.7578-6.38673 29.04297-7.12892 30-8.08595c1.34766-1.34765 2.39844-3.16015 3.14844-5.4336.7539-2.27734 1.1289-5.03515 1.1289-8.27734 0-4.49218-.73828-7.9453-2.21093-10.35546C30.58984-34.56641 28.79688-36.1797 26.6875-37c-1.52344-.58594-3.97266-.88281-7.35156-.88281H10.3125zm0 0" id="c"/><path d="M25.2539-10.01953l5.44922.67578c-.85937 3.1836-2.45312 5.65234-4.77343 7.41016C23.60547-.1758 20.6328.70312 17.02344.70312 12.47266.70313 8.86328-.69921 6.1953-3.5c-2.66406-2.80469-4-6.73438-4-11.79297 0-5.23437 1.35156-9.29687 4.04688-12.1875 2.69531-2.89062 6.1875-4.33594 10.48437-4.33594 4.16016 0 7.5625 1.41797 10.19532 4.2461C29.55859-24.73828 30.8789-20.75 30.8789-15.6172c0 .3125-.01172.78125-.02735 1.40625H7.64844c.19531 3.41797 1.16015 6.03907 2.89844 7.85157 1.73828 1.8164 3.90625 2.72656 6.5039 2.72656 1.9336 0 3.58203-.50781 4.94922-1.52344 1.36719-1.01563 2.45313-2.63672 3.2539-4.86328zM7.9375-18.54688h17.375c-.23438-2.61718-.89844-4.57812-1.99219-5.88671-1.67968-2.03125-3.85937-3.04688-6.53125-3.04688-2.42187 0-4.46093.8086-6.10937 2.4336-1.65235 1.62109-2.5625 3.78906-2.74219 6.5zm0 0" id="d"/><path d="M5.21484 0v-27.01172H.5547v-4.10156h4.66015v-3.3086c0-2.08984.1836-3.64453.5586-4.66015.50781-1.36719 1.39844-2.47656 2.67969-3.32422 1.27734-.85156 3.0703-1.27344 5.375-1.27344 1.48437 0 3.125.17188 4.92187.52344l-.78906 4.60156c-1.09375-.19531-2.13282-.29297-3.10938-.29297-1.60156 0-2.73437.33985-3.39843 1.02735-.66407.6836-.9922 1.96093-.9922 3.83593v2.8711h6.0625v4.10156h-6.0625V0zm0 0" id="e"/><path d="M3.95313 0v-31.11328h4.75v4.42578c2.28515-3.41797 5.58593-5.1289 9.89843-5.1289 1.875 0 3.60157.33593 5.17188 1.01171 1.57422.67188 2.75 1.55469 3.53125 2.64844s1.32812 2.39453 1.64062 3.89844c.19532.97656.29297 2.6875.29297 5.125V0h-5.27344v-18.92578c0-2.14844-.20703-3.7539-.61328-4.82031-.41015-1.0625-1.14062-1.91407-2.1836-2.54688-1.04687-.63672-2.26952-.95312-3.67577-.95312-2.2461 0-4.1875.71484-5.8164 2.13671-1.63282 1.42579-2.44923 4.13282-2.44923 8.1172V0zm0 0" id="f"/><path d="M1.84375-9.28906l5.21875-.82032c.29297 2.08985 1.10547 3.69532 2.44531 4.8047 1.33594 1.11327 3.20703 1.67187 5.60938 1.67187 2.42187 0 4.21875-.49219 5.39062-1.48047 1.17188-.98438 1.75782-2.14453 1.75782-3.47266 0-1.1914-.51563-2.125-1.5547-2.8125-.72265-.46875-2.51562-1.0625-5.39062-1.78515-3.86718-.97657-6.54687-1.82032-8.03906-2.53516-1.4961-.71094-2.6289-1.69922-3.39844-2.95703-.77344-1.26172-1.15625-2.65235-1.15625-4.17578 0-1.38672.3164-2.67188.94922-3.85157.63672-1.18359 1.5-2.16406 2.59375-2.9453.82031-.60548 1.9375-1.1172 3.35547-1.53907 1.41406-.41797 2.9336-.6289 4.55469-.6289 2.4414 0 4.58593.35156 6.42968 1.05468 1.84766.70313 3.21094 1.65625 4.08594 2.85547.8789 1.20313 1.48438 2.8086 1.82032 4.82031l-5.15626.70313c-.23437-1.60157-.91406-2.85157-2.03906-3.75-1.1211-.89844-2.71093-1.34766-4.75781-1.34766-2.42188 0-4.15234.40235-5.1875 1.19922-1.03516.80078-1.55469 1.74219-1.55469 2.8125 0 .6836.21875 1.30078.64844 1.84766.42969.5664 1.10156 1.03515 2.01953 1.40625.52735.1953 2.08203.64453 4.66016 1.34765 3.73047.9961 6.33203 1.8125 7.80468 2.44532 1.47657.63671 2.63282 1.55859 3.47266 2.76953.83985 1.21093 1.26172 2.71484 1.26172 4.51172 0 1.7578-.51563 3.41406-1.53906 4.96484-1.02735 1.55469-2.50782 2.7539-4.4375 3.60547-1.9336.84765-4.125 1.27344-6.5625 1.27344-4.04297 0-7.125-.83985-9.2461-2.51954C3.78516-3.49609 2.4297-5.98437 1.84375-9.28906zm0 0" id="g"/><path d="M3.83594 0v-42.94922h5.27343V0zm0 0" id="h"/><path d="M3.98438-36.88281v-6.0664H9.2578v6.0664zM3.98438 0v-31.11328H9.2578V0zm0 0" id="i"/><path d="M24.25781-3.83594C22.3047-2.17578 20.42578-1.0078 18.6172-.3203 16.8125.36329 14.875.70313 12.80469.70313c-3.41797 0-6.04688-.83594-7.88282-2.50391-1.83593-1.67188-2.7539-3.80469-2.7539-6.40235 0-1.52343.34766-2.91406 1.03906-4.17578.69531-1.2578 1.60156-2.26953 2.72656-3.03125 1.1211-.76172 2.38672-1.33984 3.79297-1.73047 1.03516-.27343 2.59766-.53515 4.6875-.78906 4.25782-.50781 7.39063-1.11328 9.40625-1.8164.01953-.72266.02735-1.1836.02735-1.37891 0-2.14844-.4961-3.66016-1.4961-4.53906-1.34765-1.1914-3.34765-1.78907-6.0039-1.78907-2.48047 0-4.3125.4375-5.4922 1.3047-1.18359.87109-2.05859 2.40624-2.62109 4.61718l-5.15625-.70313c.46875-2.20703 1.23829-3.99218 2.3125-5.34765 1.07422-1.35938 2.625-2.40235 4.65625-3.13672 2.03125-.73047 4.38672-1.09766 7.0625-1.09766 2.65626 0 4.8125.3125 6.47657.9375 1.66015.625 2.8789 1.41016 3.66015 2.35938.78125.94531 1.32813 2.14453 1.64063 3.58984.17578.89844.26172 2.51563.26172 4.85938v7.03125c0 4.90234.11328 8.0039.33984 9.30468C29.71094-2.4375 30.15625-1.1914 30.82031 0H25.3125c-.54688-1.09375-.89844-2.375-1.05469-3.83594zm-.4375-11.78125c-1.91406.78125-4.78906 1.44532-8.61718 1.99219-2.16797.3125-3.69922.66406-4.59766 1.05469-.89844.39062-1.58985.96484-2.08203 1.71484-.48828.7539-.73047 1.58985-.73047 2.5039 0 1.40626.53125 2.57813 1.59765 3.51563 1.0625.9375 2.6211 1.40625 4.67188 1.40625 2.03125 0 3.83594-.4414 5.42188-1.33203 1.58203-.88672 2.74218-2.10547 3.48437-3.64453.5664-1.1914.85156-2.95313.85156-5.27344zm0 0" id="j"/><path d="M24.25781-11.39844l5.1875.67578c-.5664 3.57422-2.01953 6.3711-4.35156 8.39453C22.75781-.30858 19.89062.70313 16.49219.70313c-4.25782 0-7.67969-1.39062-10.26563-4.17578C3.63672-6.2539 2.34375-10.24219 2.34375-15.4375c0-3.35938.55469-6.30078 1.67188-8.82031 1.11328-2.51953 2.80468-4.41016 5.08203-5.66797 2.27343-1.26172 4.75-1.89063 7.42578-1.89063 3.3789 0 6.14062.85547 8.28906 2.5625 2.14844 1.71094 3.52734 4.13672 4.13281 7.28125l-5.125.79297c-.48828-2.08984-1.35547-3.66406-2.59375-4.71875-1.24218-1.05468-2.74218-1.58203-4.5-1.58203-2.65625 0-4.8125.95313-6.47265 2.85547-1.66016 1.90625-2.48828 4.91797-2.48828 9.03906 0 4.17969.79687 7.21875 2.39843 9.10938 1.60157 1.89453 3.69532 2.84375 6.27344 2.84375 2.07031 0 3.79688-.63281 5.1836-1.90625 1.38671-1.26953 2.26562-3.21875 2.63671-5.85938zm0 0" id="k"/><path d="M4.92188 0v-42.94922h28.97656v5.0664H10.60547v13.3047h20.15625v5.0664H10.60547V0zm0 0" id="l"/><path d="M24.34375 0v-4.57031C21.92187-1.0547 18.63281.70313 14.47265.70313c-1.83593 0-3.55077-.35157-5.14062-1.0547C7.73828-1.05468 6.5586-1.9375 5.78516-3.0039c-.76954-1.0625-1.3125-2.36718-1.625-3.91015-.21485-1.03516-.32422-2.67578-.32422-4.92188v-19.27734h5.27343v17.2539c0 2.75391.10938 4.60938.32422 5.57032.33203 1.38672 1.03516 2.47265 2.10938 3.26562 1.07422.78906 2.40234 1.1875 3.98437 1.1875s3.06641-.40625 4.45313-1.21875c1.38672-.8086 2.36719-1.91406 2.94531-3.3086.57422-1.39843.86328-3.42577.86328-6.08202v-16.66797h5.27344V0zm0 0" id="m"/><path d="M24.14063 0v-3.92578c-1.97266 3.08594-4.875 4.6289-8.70313 4.6289-2.48047 0-4.75781-.68359-6.83984-2.05078C6.51953-2.71484 4.90625-4.625 3.76563-7.07422c-1.14454-2.45312-1.71485-5.26953-1.71485-8.45312 0-3.10547.51953-5.92188 1.55078-8.45313 1.03516-2.52734 2.58985-4.46484 4.66016-5.8164 2.07031-1.34766 4.38672-2.01954 6.9414-2.01954 1.875 0 3.54688.39454 5.01172 1.1875 1.46485.78907 2.65625 1.82032 3.57422 3.08985v-15.41016h5.24219V0zM7.46874-15.52734c0 3.98437.84375 6.96484 2.52344 8.93359 1.67968 1.97266 3.66015 2.96094 5.94531 2.96094 2.30469 0 4.26172-.9414 5.875-2.82813 1.60938-1.88281 2.41406-4.75781 2.41406-8.625 0-4.25781-.82031-7.38281-2.46093-9.375-1.64063-1.99218-3.66016-2.99218-6.0625-2.99218-2.34375 0-4.30079.96093-5.875 2.875-1.57032 1.91406-2.35938 4.92968-2.35938 9.05078zm0 0" id="n"/></defs><use y="50" xlink:href="#a"/><use x="40.195" y="50" xlink:href="#b"/><use x="73.564" y="50" xlink:href="#b"/><use y="120" xlink:href="#c"/><use x="43.33" y="120" xlink:href="#d"/><use x="76.699" y="120" xlink:href="#e"/><use x="94.893" y="120" xlink:href="#d"/><use x="128.262" y="120" xlink:href="#f"/><use x="161.631" y="120" xlink:href="#g"/><use x="191.631" y="120" xlink:href="#d"/><g><use y="180" xlink:href="#a"/><use x="40.195" y="180" xlink:href="#h"/><use x="53.525" y="180" xlink:href="#h"/><use x="66.855" y="180" xlink:href="#i"/><use x="80.186" y="180" xlink:href="#j"/><use x="113.555" y="180" xlink:href="#f"/><use x="146.924" y="180" xlink:href="#k"/><use x="176.924" y="180" xlink:href="#d"/></g><g><use y="240" xlink:href="#l"/><use x="36.65" y="240" xlink:href="#m"/><use x="70.02" y="240" xlink:href="#f"/><use x="103.389" y="240" xlink:href="#n"/></g></svg>
